packages/ffe-icons/icons/filled/md/access_time.svg

<svg xmlns="http://www.w3.org/2000/svg" height="24" viewBox="0 -960 960 960" width="24"><path d="M509.999-492.154v-157.847q0-12.749-8.628-21.374Q492.742-680 479.987-680q-12.756 0-21.371 8.625-8.615 8.625-8.615 21.374v167.078q0 7.063 2.615 13.685 2.615 6.622 8.231 12.238l137 137q8.308 8.307 20.884 8.5 12.577.192 21.269-8.5 8.692-8.692 8.692-21.076 0-12.385-8.692-21.077L509.999-492.154Zm-29.932 392.153q-78.836 0-148.204-29.92-69.369-29.92-120.682-81.21-51.314-51.291-81.247-120.629-29.933-69.337-29.933-148.173t29.92-148.204q29.92-69.369 81.21-120.682 51.291-51.314 120.629-81.247 69.337-29.933 148.173-29.933t148.204 29.92q69.369 29.92 120.682 81.21 51.314 51.291 81.247 120.629 29.933 69.337 29.933 148.173t-29.92 148.204q-29.92 69.369-81.21 120.682-51.291 51.314-120.629 81.247-69.337 29.933-148.173 29.933Z"/></svg>

<svg xmlns="http://www.w3.org/2000/svg" height="24" viewBox="0 -960 960 960" width="24"><path d="M510-492.15V-650q0-12.75-8.63-21.38-8.63-8.62-21.38-8.62-12.76 0-21.37 8.62Q450-662.75 450-650v167.08q0 7.06 2.62 13.68 2.61 6.62 8.23 12.24l137 137q8.3 8.31 20.88 8.5 12.58.19 21.27-8.5t8.69-21.08q0-12.38-8.69-21.07l-130-130ZM480.07-100q-78.84 0-148.21-29.92t-120.68-81.21q-51.31-51.29-81.25-120.63Q100-401.1 100-479.93q0-78.84 29.92-148.21t81.21-120.68q51.29-51.31 120.63-81.25Q401.1-860 479.93-860q78.84 0 148.21 29.92t120.68 81.21q51.31 51.29 81.25 120.63Q860-558.9 860-480.07q0 78.84-29.92 148.21t-81.21 120.68q-51.29 51.31-120.63 81.25Q558.9-100 480.07-100Z"/></svg>
